X:79
T:Jacks a Live. RHu.079
S:R.Hughes MS,1823,Whitchurch,Shrops.
A:Whitchurch , Shropshire
Z:Neil Brookes 2006
M:2/4
L:1/8
Q:1/4=100
R:Reel
K:C
G|cc dd|ec d/B/A/G/|cc dd|e/d/c/B/ c”cr in MS”::!
g|c’c’ bb|aa bg|c’c’ bg|ab c’2|!
c’c’ bb|ac’ bg|cc dd|e/d/c/B/ “cr in MS”c:|

